icons/download-2-line.svg

<svg xmlns="http://www.w3.org/2000/svg" viewBox="0 0 24 24">
    <g>
        <path fill="none" d="M0 0h24v24H0z"/>
        <path d="M13 10h5l-6 6-6-6h5V3h2v7zm-9 9h16v-7h2v8a1 1 0 0 1-1 1H3a1 1 0 0 1-1-1v-8h2v7z"/>
    </g>
</svg>

<svg viewBox="0 0 24 24" fill="currentColor" xmlns="http://www.w3.org/2000/svg"><path d="M13 10H18L12 16L6 10H11V3H13V10ZM4 19H20V12H22V20C22 20.5523 21.5523 21 21 21H3C2.44772 21 2 20.5523 2 20V12H4V19Z"/></svg>
